X:1 % 14
T:Almer
C:traditionell
R:Jodler
A:Salzkammergut
B:"Pfeiermusik aus dem Salzkammergut", zus. A.Ruttner durch V.Derschmidt revidierte Ausgabe, Verlag E. Friedhuber, Wels, 2000, s.22
N:im buch ganz in G, zweistimmig, erster ton:1.stimme: h', 2.stimme d''
Z:abc transcripton Simon Wascher
M:3/4
L:1/8
K:G 
P:1
B2 |\
cDFA df | Hg3fed | cDFA cB | GBG DBB |\
cDFA df | Hg3fed | cDFA cB | G2z2 :|
